X:2084
T:Halling från Härjedalen efter Per Myhr
S:Efter Peter Michaelsen
Z:[[http://www.bluerose.karenlmyers.org/IncipitsHalling2.html|Karen Myers (#2084A)]]
Z:Upptecknad 7/2008
M:2/4
L:1/16
R:Halling
O:Härjedalen
N:The key is really D Mixolydian
K:D
(fg |: a2)(ab a2)(fa | g2)(eg f2)df | a2(ab a2)(fa | g2)e=c d2>(f2 :|
|: g2)f2 d2>=c2 | A2(BA G2)A2 | F2(ED =C2)D2 | (FG)A2 (FG)A2 |
F2(ED =C2)DE | (FG)A2 (FG)A2 | f2>e2 d2=c2 | d4 d4 :|
